dist/projects/justice/icons/history.svg

<svg width="80" height="80" viewBox="0 0 80 80" fill="none" xmlns="http://www.w3.org/2000/svg">
<g clip-path="url(#clip0)">
<path d="M51.7266 69.165C52.7362 68.0719 53.1701 66.7315 53.1701 65.2496C53.1701 63.7634 52.7447 62.4139 51.7266 61.3214C50.7348 60.2557 49.4818 59.7644 48.0383 59.7644C46.5905 59.7644 45.324 60.2423 44.3237 61.3037C43.3007 62.3919 42.8802 63.7372 42.8802 65.2234C42.8802 66.7187 43.3007 68.081 44.328 69.1784C45.324 70.2441 46.5771 70.7354 48.0249 70.7354C49.4769 70.7354 50.7342 70.2398 51.7266 69.165ZM46.4044 67.3999C45.9216 66.7846 45.7757 66.0016 45.7757 65.2362C45.7757 64.4757 45.935 63.7231 46.4221 63.1262C46.8383 62.6129 47.3651 62.3565 48.0249 62.3565C48.6889 62.3565 49.2291 62.6001 49.6411 63.1262C50.1239 63.7365 50.274 64.5019 50.274 65.263C50.274 66.0241 50.1147 66.7846 49.6368 67.3907C49.2205 67.9168 48.6889 68.1695 48.0249 68.1695C47.3565 68.1695 46.8206 67.926 46.4044 67.3999Z" fill="white"/>
<path d="M41.3348 59.9414H36.137C35.783 59.9414 35.473 60.0781 35.2294 60.3351C34.9902 60.5871 34.862 60.8923 34.862 61.242C34.862 61.6089 34.9902 61.9275 35.2514 62.1838C35.4949 62.4139 35.7873 62.5512 36.1236 62.5512H37.337V69.2578C37.337 69.6423 37.4786 69.9786 37.7484 70.2484L37.7532 70.2575L37.7618 70.2618C38.045 70.5139 38.3819 70.6689 38.7628 70.6689C39.1387 70.6689 39.4665 70.5182 39.7277 70.2484C39.9932 69.9743 40.1348 69.6423 40.1348 69.2578V62.5647H41.3348C41.6845 62.5647 41.9946 62.4365 42.2424 62.1838C42.4902 61.9317 42.6232 61.6223 42.6232 61.2683C42.6232 60.91 42.4951 60.5914 42.2467 60.3351C41.9989 60.0781 41.6888 59.9414 41.3348 59.9414Z" fill="white"/>
<path d="M31.2664 67.7667C31.0412 67.9394 30.7665 68.0011 30.4827 68.0011C30.0445 68.0011 29.5354 67.8467 29.1283 67.6959C28.8403 67.5946 28.3532 67.4176 28.0523 67.4176C27.6977 67.4176 27.3882 67.55 27.1532 67.8155C26.9097 68.0853 26.8035 68.4125 26.8035 68.7707V68.8415C26.8035 69.5227 27.3394 69.9518 27.9015 70.2215C28.6633 70.5847 29.5397 70.6952 30.3722 70.6952C31.4526 70.6952 32.5018 70.4339 33.33 69.6997C34.1045 69.01 34.4677 68.125 34.4677 67.0856C34.4677 65.9881 34.0429 65.0946 33.1036 64.5196C32.5237 64.1479 31.7315 63.9001 31.0717 63.7103C30.8062 63.6395 30.5407 63.5596 30.2837 63.4625C30.1952 63.4314 30.0268 63.3697 29.9468 63.3118C29.8632 63.241 29.7655 63.1439 29.7655 63.0243C29.7655 62.8564 29.8498 62.7411 29.978 62.644C30.1641 62.5067 30.3808 62.4536 30.6066 62.4536C30.8233 62.4536 31.1028 62.5244 31.3103 62.5824L31.7046 62.7191C31.9482 62.7991 32.2717 62.901 32.528 62.901C32.8869 62.901 33.1921 62.7594 33.4313 62.4939C33.6706 62.2327 33.7902 61.914 33.7902 61.56C33.7902 60.9454 33.3697 60.5249 32.86 60.2466C32.2271 59.906 31.4965 59.7906 30.7885 59.7906C29.7478 59.7906 28.778 60.0647 27.9766 60.7464C27.224 61.3965 26.8432 62.2327 26.8432 63.2324C26.8432 64.1833 27.1935 64.9756 27.9943 65.4974C28.2336 65.6567 28.5259 65.7806 28.7957 65.8868C29.19 66.037 29.5971 66.1651 30.0048 66.2848C30.3808 66.3952 30.8239 66.5234 31.1822 66.687C31.2798 66.7316 31.4123 66.8066 31.4703 66.9037C31.5234 67.0013 31.5453 67.1161 31.5453 67.2265C31.5453 67.4573 31.4526 67.6251 31.2664 67.7667Z" fill="white"/>
<path d="M66.7932 70.2527C67.0679 70.5182 67.3957 70.6689 67.7759 70.6689C68.1659 70.6689 68.5065 70.5182 68.772 70.2307C69.0332 69.9518 69.1754 69.6161 69.1754 69.2309V65.6476L71.7743 62.091C71.9599 61.839 72.0484 61.5515 72.0484 61.2414C72.0484 60.852 71.8982 60.5163 71.615 60.2508C71.3446 59.9896 71.0126 59.8437 70.636 59.8437C70.1538 59.8437 69.7638 60.0561 69.494 60.4541L67.7759 62.9181L66.0718 60.4541C65.8057 60.0512 65.412 59.8437 64.9292 59.8437C64.5349 59.8437 64.1809 59.981 63.902 60.2643C63.6365 60.5298 63.4857 60.8612 63.4857 61.2414C63.4857 61.5558 63.6054 61.8432 63.7915 62.091L66.3636 65.6476V69.2309C66.3636 69.6289 66.5058 69.9786 66.7932 70.2527Z" fill="white"/>
<path d="M62.5823 63.3563C62.5823 62.3828 62.2418 61.5472 61.5112 60.8966C60.7678 60.2331 59.851 59.9591 58.8592 59.9591H56.2914C55.8972 59.9591 55.5517 60.0958 55.277 60.3747C54.9938 60.6579 54.8608 61.0119 54.8608 61.4099V69.2309C54.8608 69.6246 54.9981 69.9701 55.277 70.2484L55.2819 70.2576L55.2862 70.2618C55.5737 70.5139 55.9057 70.6689 56.2908 70.6689C56.6674 70.6689 57.0037 70.5365 57.2741 70.2661C57.5439 69.9921 57.6769 69.6557 57.6769 69.2706V67.0105L60.1788 70.0891C60.462 70.4388 60.8251 70.6689 61.2811 70.6689C61.6619 70.6689 62.0025 70.5316 62.2863 70.271L62.2949 70.2661L62.2991 70.2576C62.5561 69.9743 62.7068 69.6423 62.7068 69.2578C62.7068 68.9081 62.5781 68.6029 62.3437 68.3423L60.4577 66.2671C60.7763 66.1786 61.0998 66.0596 61.3519 65.8868C62.2198 65.2893 62.5823 64.3957 62.5823 63.3563ZM59.5141 64.024C59.3328 64.1968 59.1247 64.2853 58.872 64.2853H57.6904V62.5824H58.8458C59.0978 62.5824 59.3237 62.6483 59.5056 62.8345L59.5098 62.8387L59.519 62.843C59.6911 62.998 59.7845 63.1793 59.7845 63.4137C59.7845 63.6572 59.6911 63.8519 59.5141 64.024Z" fill="white"/>
<path d="M17.9358 70.271C18.2055 70.545 18.5418 70.6824 18.927 70.6824C19.317 70.6824 19.6533 70.5365 19.9237 70.2533C20.1849 69.9786 20.3265 69.6515 20.3265 69.2712V61.2683C20.3265 60.8746 20.1892 60.5298 19.9145 60.2466C19.6447 59.9768 19.3127 59.8309 18.9276 59.8309C18.5424 59.8309 18.2104 59.9945 17.9443 60.2728C17.6831 60.5517 17.528 60.8838 17.528 61.2683V63.8251H13.8574V61.2683C13.8574 60.8789 13.7207 60.5383 13.4546 60.26C13.1891 59.9811 12.857 59.8309 12.4719 59.8309C12.0819 59.8309 11.7456 59.9902 11.4752 60.2728C11.2097 60.5517 11.0589 60.8838 11.0589 61.2683V69.2712C11.0589 69.66 11.1963 70.0006 11.4752 70.2753C11.7498 70.545 12.0862 70.6824 12.4719 70.6824C12.857 70.6824 13.1933 70.545 13.4588 70.271C13.7292 69.9969 13.8574 69.6564 13.8574 69.2712V66.4355H17.528V69.2706C17.528 69.66 17.6654 69.9963 17.9358 70.271Z" fill="white"/>
<path d="M22.7258 60.2728C22.4646 60.5517 22.3095 60.8838 22.3095 61.2683V69.2578C22.3095 69.6423 22.4469 69.9835 22.7172 70.2575C22.987 70.5316 23.3282 70.6689 23.7091 70.6689C24.0942 70.6689 24.4305 70.5316 24.7009 70.2575C24.9707 69.9878 25.108 69.6557 25.108 69.2706V61.2683C25.108 60.8789 24.9749 60.5383 24.7052 60.2594C24.4397 59.981 24.1076 59.8303 23.7219 59.8303C23.3325 59.8303 22.9962 59.9902 22.7258 60.2728Z" fill="white"/>
<path d="M78.4246 24.9573H19.7814L77.3553 13.8269C77.7654 13.7476 78.128 13.5083 78.3618 13.1623C78.5961 12.8156 78.6828 12.3908 78.6029 11.98L76.8633 2.99564C76.6973 2.14115 75.8709 1.58207 75.017 1.74808L58.518 4.93717C58.4838 4.94266 58.449 4.94877 58.4149 4.9567L8.53999 14.5972C8.5345 14.5984 8.52961 14.599 8.52412 14.6003L1.2768 16.001C0.866038 16.081 0.5041 16.3196 0.270335 16.6663C0.0359601 17.0124 -0.0507099 17.4378 0.0286359 17.8479L1.74006 26.684V76.7072C1.74006 77.5776 2.44563 78.2831 3.31599 78.2831H33.4008C34.2712 78.2831 34.9768 77.5776 34.9768 76.7072C34.9768 75.8374 34.2712 75.1319 33.4008 75.1319H4.89131V37.2614H11.8865L11.8908 37.262L11.8933 37.2614H24.5935L24.5977 37.262L24.6002 37.2614H37.3052L37.3089 37.262L37.312 37.2614H50.0122L50.0158 37.262L50.0189 37.2614H62.7191L62.7227 37.262L62.7258 37.2614H76.8487V75.1319H47.5866C46.7163 75.1319 46.0107 75.8374 46.0107 76.7072C46.0107 77.5776 46.7163 78.2831 47.5866 78.2831H78.4246C79.2944 78.2831 79.9999 77.5776 79.9999 76.7072V26.5332C79.9999 25.6629 79.2944 24.9573 78.4246 24.9573ZM53.1707 34.1101L57.6763 28.1086H66.4422L61.9366 34.1101H53.1707ZM40.4626 34.1101L44.9652 28.1086H53.7353L49.2297 34.1101H40.4626ZM27.752 34.1101L32.2576 28.1086H41.0253L36.5228 34.1101H27.752ZM15.0451 34.1101L19.5507 28.1086H28.3172L23.8116 34.1101H15.0451ZM4.89131 26.5332C4.89131 25.6458 5.61457 24.9237 6.50386 24.9237C7.39253 24.9237 8.11579 25.6458 8.11579 26.5332C8.11579 27.4207 7.39253 28.1427 6.50386 28.1427C5.61457 28.1427 4.89131 27.4207 4.89131 26.5332ZM20.9466 15.409L27.2485 20.304L18.8818 21.9214L12.583 17.0258L20.9466 15.409ZM33.4228 12.9975L39.7241 17.8919L31.3623 19.5087L25.0604 14.6137L33.4228 12.9975ZM45.899 10.586L52.1997 15.4804L43.8378 17.0966L37.5366 12.2028L45.899 10.586ZM58.3795 8.17386L64.6765 13.0683L56.3134 14.6851L50.0128 9.79069L58.3795 8.17386ZM75.2093 11.0321L68.789 12.273L62.492 7.37858L74.0686 5.14103L75.2093 11.0321ZM8.47041 17.8205L14.7698 22.7167L10.2447 23.5913C9.3719 22.4848 8.01997 21.7725 6.50386 21.7725C5.63655 21.7725 4.82417 22.0063 4.12287 22.4121L3.4228 18.7964L8.47041 17.8205ZM4.89131 31.0126C5.39546 31.1945 5.93806 31.294 6.50386 31.294C8.57783 31.294 10.3454 29.9616 10.9979 28.1086H15.6103L11.1047 34.1101H4.89131V31.0126ZM65.8776 34.1101L70.3832 28.1086H76.8487V34.1101H65.8776Z" fill="white"/>
<path d="M70.4901 54.0405C71.3604 54.0405 72.066 53.3356 72.066 52.4652V46.0199C72.066 45.1496 71.3604 44.444 70.4901 44.444H10.3643C9.49399 44.444 8.78842 45.1496 8.78842 46.0199V52.4652C8.78842 53.3356 9.49399 54.0405 10.3643 54.0405H70.4901ZM68.9148 50.8893H51.3849V47.5952H68.9148V50.8893ZM48.2336 50.8893H30.0177V47.5952H48.2336V50.8893ZM11.9403 47.5952H26.8664V50.8893H11.9403V47.5952Z" fill="white"/>
<path d="M40.5511 75.1317H40.5249C39.6545 75.1317 38.9489 75.8367 38.9489 76.7071C38.9489 77.5774 39.6545 78.283 40.5249 78.283H40.5511C41.4215 78.283 42.127 77.5774 42.127 76.7071C42.127 75.8367 41.4215 75.1317 40.5511 75.1317Z" fill="white"/>
</g>
<defs>
<clipPath id="clip0">
<rect width="80" height="80" fill="white"/>
</clipPath>
</defs>
</svg>

<svg width="80" height="80" fill="none" xmlns="http://www.w3.org/2000/svg"><g clip-path="url(#clip0)" fill="#fff"><path d="M51.727 69.165c1.01-1.093 1.443-2.434 1.443-3.915 0-1.487-.425-2.836-1.443-3.929-.992-1.065-2.245-1.557-3.689-1.557-1.447 0-2.714.478-3.714 1.54-1.023 1.088-1.444 2.433-1.444 3.92 0 1.495.42 2.857 1.448 3.954.996 1.066 2.25 1.557 3.697 1.557 1.452 0 2.71-.495 3.702-1.57zM46.404 67.4c-.482-.615-.628-1.398-.628-2.164 0-.76.159-1.513.646-2.11.416-.513.943-.77 1.603-.77.664 0 1.204.244 1.616.77.483.61.633 1.376.633 2.137 0 .761-.16 1.522-.637 2.128-.416.526-.948.778-1.612.778-.669 0-1.204-.243-1.62-.77zm-5.069-7.459h-5.198a1.22 1.22 0 00-.908.394 1.284 1.284 0 00-.367.907c0 .367.128.686.39.942.243.23.535.367.872.367h1.213v6.707c0 .384.142.72.411.99l.005.01.009.004c.283.252.62.407 1 .407.377 0 .705-.15.966-.42.265-.275.407-.607.407-.991v-6.693h1.2c.35 0 .66-.128.907-.381.248-.252.381-.562.381-.916 0-.358-.128-.677-.376-.933a1.235 1.235 0 00-.912-.394zm-10.069 7.826c-.225.172-.5.234-.783.234-.439 0-.948-.154-1.355-.305-.288-.101-.775-.278-1.076-.278-.354 0-.664.132-.899.397a1.38 1.38 0 00-.35.956v.07c0 .682.536 1.11 1.098 1.38.762.364 1.639.474 2.471.474 1.08 0 2.13-.261 2.958-.995.775-.69 1.138-1.575 1.138-2.614 0-1.098-.425-1.991-1.364-2.566-.58-.372-1.372-.62-2.032-.81a8.235 8.235 0 01-.788-.248 1.63 1.63 0 01-.337-.15c-.084-.071-.181-.168-.181-.288 0-.168.084-.283.212-.38.186-.137.403-.19.629-.19.216 0 .496.07.703.128l.395.137c.243.08.567.182.823.182.359 0 .664-.142.903-.407.24-.261.36-.58.36-.934 0-.615-.421-1.035-.931-1.313-.633-.341-1.363-.456-2.072-.456-1.04 0-2.01.274-2.811.955-.753.65-1.134 1.487-1.134 2.486 0 .951.35 1.744 1.151 2.265.24.16.532.284.802.39.394.15.801.278 1.209.398.376.11.819.238 1.177.402.098.045.23.12.288.217a.68.68 0 01.075.323c0 .23-.092.398-.279.54zm35.527 2.486c.275.265.603.416.983.416.39 0 .73-.15.996-.438a1.43 1.43 0 00.403-1v-3.583l2.6-3.557c.185-.252.273-.54.273-.85 0-.389-.15-.725-.433-.99a1.382 1.382 0 00-.979-.407c-.482 0-.872.212-1.142.61l-1.718 2.464-1.704-2.464a1.309 1.309 0 00-1.143-.61 1.4 1.4 0 00-1.027.42 1.354 1.354 0 00-.416.977c0 .315.12.602.306.85l2.572 3.557v3.583c0 .398.142.748.43 1.022zm-4.211-6.897c0-.973-.34-1.809-1.07-2.46-.744-.663-1.661-.937-2.653-.937h-2.568c-.394 0-.74.137-1.014.416a1.415 1.415 0 00-.416 1.035v7.82c0 .395.137.74.416 1.018l.005.01.004.004c.288.252.62.407 1.005.407.376 0 .713-.132.983-.403.27-.274.403-.61.403-.995v-2.26l2.502 3.078c.283.35.646.58 1.102.58.38 0 .721-.137 1.005-.398l.009-.005.004-.008c.257-.284.408-.616.408-1 0-.35-.129-.655-.363-.916l-1.886-2.075c.318-.088.642-.207.894-.38.868-.598 1.23-1.491 1.23-2.53zm-3.068.668a.892.892 0 01-.642.261H57.69v-1.703h1.156c.252 0 .478.066.66.252l.004.005.009.004a.732.732 0 01.266.57.814.814 0 01-.27.611zm-41.578 6.247c.27.274.606.411.991.411.39 0 .726-.145.997-.429a1.39 1.39 0 00.402-.982v-8.003a1.42 1.42 0 00-.412-1.021 1.358 1.358 0 00-.986-.416c-.386 0-.718.163-.984.442-.26.279-.416.61-.416.995v2.557h-3.67v-2.557c0-.39-.137-.73-.403-1.008a1.32 1.32 0 00-.983-.43c-.39 0-.726.16-.997.443a1.412 1.412 0 00-.416.995v8.003c0 .389.137.73.416 1.004.275.27.611.407.997.407.385 0 .721-.137.987-.411.27-.274.398-.615.398-1v-2.835h3.671v2.835c0 .389.137.725.408 1zm4.79-9.998c-.261.279-.416.61-.416.995v7.99c0 .384.137.726.407 1 .27.274.611.41.992.41.385 0 .721-.136.992-.41.27-.27.407-.602.407-.987v-8.003c0-.39-.133-.73-.403-1.009a1.322 1.322 0 00-.983-.429c-.39 0-.726.16-.996.443z"/><path d="M78.425 24.957H19.78l57.574-11.13a1.577 1.577 0 001.248-1.847l-1.74-8.984a1.576 1.576 0 00-1.846-1.248l-16.499 3.19a1.52 1.52 0 00-.103.019L8.54 14.597l-.016.003-7.247 1.401a1.576 1.576 0 00-1.248 1.847l1.711 8.836v50.023c0 .87.706 1.576 1.576 1.576h30.085a1.576 1.576 0 100-3.151H4.89v-37.87h71.96v37.87H47.587a1.576 1.576 0 100 3.151h30.838c.87 0 1.575-.705 1.575-1.576V26.533c0-.87-.706-1.576-1.575-1.576zM53.17 34.11l4.505-6.001h8.766l-4.505 6.001H53.17zm-12.708 0l4.502-6.001h8.77L49.23 34.11h-8.767zm-12.711 0l4.506-6.001h8.767l-4.502 6.001h-8.771zm-12.707 0l4.506-6.001h8.766l-4.505 6.001h-8.767zM4.891 26.533a1.613 1.613 0 013.225 0 1.613 1.613 0 01-3.225 0zM20.947 15.41l6.302 4.895-8.367 1.617-6.299-4.895 8.364-1.617zm12.476-2.412l6.301 4.895-8.362 1.617-6.302-4.895 8.363-1.617zm12.476-2.411l6.3 4.894-8.361 1.617-6.301-4.894 8.362-1.617zm12.48-2.412l6.298 4.894-8.364 1.617-6.3-4.894 8.367-1.617zm16.83 2.858l-6.42 1.241-6.297-4.894 11.577-2.24 1.14 5.891zM8.47 17.82l6.3 4.897-4.525.874a4.757 4.757 0 00-6.122-1.179l-.7-3.616 5.047-.976zM4.891 31.014a4.74 4.74 0 001.613.281 4.771 4.771 0 004.494-3.185h4.612l-4.505 6.001H4.89v-3.097zm60.987 3.097l4.505-6.001h6.466v6.001H65.878z"/><path d="M70.49 54.04c.87 0 1.576-.704 1.576-1.575V46.02c0-.87-.706-1.576-1.576-1.576H10.364c-.87 0-1.576.706-1.576 1.576v6.445c0 .87.706 1.575 1.576 1.575H70.49zm-1.575-3.15h-17.53v-3.295h17.53v3.294zm-20.681 0H30.018v-3.295h18.216v3.294zM11.94 47.594h14.926v3.294H11.94v-3.294zm28.611 27.538h-.026a1.575 1.575 0 100 3.151h.026a1.576 1.576 0 100-3.151z"/></g><defs><clipPath id="clip0"><path fill="#fff" d="M0 0h80v80H0z"/></clipPath></defs></svg>
